packages/core/src/svgs/mcb.svg

<svg width="24" height="24" viewBox="0 0 24 24" fill="none" xmlns="http://www.w3.org/2000/svg">
<g clip-path="url(#clip0_31_13584)">
<path d="M0 0H24V24H0V0Z" fill="#12182C"/>
<path d="M3.85585 16.7138C3.52971 16.7138 3.32443 16.3354 3.48385 16.0285L7.66543 7.98979C7.89171 7.55479 8.31857 7.28564 8.78143 7.28564H10.716C11.0417 7.28564 11.2474 7.6645 11.0876 7.97093L6.90557 16.0096C6.67928 16.4446 6.25285 16.7142 5.79 16.7142L3.85585 16.7138Z" fill="#59EFEC"/>
<path d="M11.3613 16.7142H9.4272C9.10063 16.7142 8.89577 16.3358 9.0552 16.0289L13.2368 7.99022C13.4631 7.55564 13.8899 7.28564 14.3528 7.28564H16.2873C16.6131 7.28564 16.8188 7.6645 16.6589 7.97093L12.4769 16.0096C12.2511 16.4442 11.8242 16.7142 11.3613 16.7142Z" fill="#D98041"/>
<path d="M16.9491 10.511L16.0131 12.3255C15.9106 12.5263 15.8572 12.7485 15.8572 12.974C15.8572 13.1994 15.9106 13.4216 16.0131 13.6224L17.259 16.037C17.4745 16.4553 17.8812 16.7141 18.3218 16.7141H20.1647C20.475 16.7141 20.6708 16.3507 20.5187 16.0563L17.6575 10.511C17.5028 10.2105 17.1047 10.2105 16.9491 10.511Z" fill="white"/>
</g>
<defs>
<clipPath id="clip0_31_13584">
<rect width="24" height="24" fill="white"/>
</clipPath>
</defs>
</svg>

<svg xmlns="http://www.w3.org/2000/svg" width="24" height="24" fill="none" viewBox="0 0 24 24"><g clip-path="url(#a)"><path fill="#12182C" d="M0 0h24v24H0z"/><path fill="#59EFEC" d="M3.856 16.714c-.326 0-.532-.379-.372-.685l4.181-8.04c.227-.434.654-.703 1.116-.703h1.935c.326 0 .531.379.372.685L6.906 16.01c-.227.435-.653.704-1.116.704z"/><path fill="#D98041" d="M11.361 16.714H9.427c-.326 0-.531-.378-.372-.685l4.182-8.039c.226-.434.653-.704 1.116-.704h1.934c.326 0 .532.379.372.685l-4.182 8.039c-.226.434-.653.704-1.116.704"/><path fill="#fff" d="m16.95 10.511-.937 1.815a1.43 1.43 0 0 0 0 1.296l1.246 2.415c.215.418.622.677 1.063.677h1.843c.31 0 .506-.363.354-.658l-2.861-5.545a.391.391 0 0 0-.709 0"/></g><defs><clipPath id="a"><path fill="#fff" d="M0 0h24v24H0z"/></clipPath></defs></svg>
